X:12
%%etbk:tnset id:5,pos:1,rep:3
%%etbk:site1 http://www.thesession.org/tunes/display/2878
T: Road To Monalea, The
Z: Piano Box Version by Martin Fleischmann (www.boxplayer.ch)
M: 4/4
L: 1/8
R: Reel
K: Ddor
!4!d!3!c!2!Ac !4!d3!5!e|!4!d!3!c!2!A!1!G !3!F!1!DD2|!3!c!2!A!2!G!2!A !3!cded|!3!c!2!A!1!G!2!E EDD2|
dcAc d3e|dcA!1!G !2!E!4!G!1!D!4!G|!1!E!2!G!3!A!4!B !3!cded|cAGE EDD2:|
|:!3!dcAc d2!2!c!3!d|!2!e!5!aag eg!1!d2|!4!g!3!e!2!de !1!c3d|!3!e!4!gag !3!e!1!dd2|
!3!dcAc d2cd|!2!eaag eg!1!d2|!3!c!1!G~G2 !3!cded|!3!cAGE EDD2:|

